Pods/ProtonCore-UIFoundations/libraries/UIFoundations/Sources/Assets.xcassets/Images/IconSet/ic-text-quote.imageset/ic-text-quote.svg

<svg width="24" height="24" viewBox="0 0 24 24" fill="none" xmlns="http://www.w3.org/2000/svg">
<path fill-rule="evenodd" clip-rule="evenodd" d="M4.5 3.75C4.5 3.33579 4.16421 3 3.75 3C3.33579 3 3 3.33579 3 3.75V20.25C3 20.6642 3.33579 21 3.75 21C4.16421 21 4.5 20.6642 4.5 20.25V3.75ZM6.75 9.5C6.75 7.90061 8.17863 6.75 9.75 6.75C11.3214 6.75 12.75 7.90061 12.75 9.5V10.1863V10.5C12.75 10.6464 12.738 10.7891 12.7151 10.9275C12.5189 13.003 11.5044 14.944 9.86223 16.4037L9.12327 17.0606C8.81369 17.3357 8.33963 17.3079 8.06444 16.9983C7.78925 16.6887 7.81714 16.2146 8.12673 15.9394L8.86569 15.2826C9.56844 14.6579 10.1265 13.9359 10.5254 13.1555C10.2751 13.2174 10.0146 13.25 9.75 13.25C8.17863 13.25 6.75 12.0994 6.75 10.5V9.5ZM11.25 10.1863C11.25 10.3585 11.243 10.5302 11.2291 10.7012C11.1173 11.2427 10.5635 11.75 9.75 11.75C8.83609 11.75 8.25 11.1098 8.25 10.5V9.5C8.25 8.89025 8.83609 8.25 9.75 8.25C10.6639 8.25 11.25 8.89025 11.25 9.5V10.1863ZM14.25 9.5C14.25 7.90061 15.6786 6.75 17.25 6.75C18.8214 6.75 20.25 7.90061 20.25 9.5V10.1863V10.5C20.25 10.6464 20.238 10.7891 20.2151 10.9275C20.0189 13.003 19.0044 14.944 17.3622 16.4037L16.6233 17.0606C16.3137 17.3357 15.8396 17.3079 15.5644 16.9983C15.2893 16.6887 15.3171 16.2146 15.6267 15.9394L16.3657 15.2826C17.0684 14.6579 17.6265 13.9359 18.0254 13.1555C17.7751 13.2174 17.5146 13.25 17.25 13.25C15.6786 13.25 14.25 12.0994 14.25 10.5V9.5ZM18.75 10.1863C18.75 10.3585 18.743 10.5302 18.7291 10.7012C18.6173 11.2427 18.0635 11.75 17.25 11.75C16.3361 11.75 15.75 11.1098 15.75 10.5V9.5C15.75 8.89025 16.3361 8.25 17.25 8.25C18.1639 8.25 18.75 8.89025 18.75 9.5V10.1863Z" fill="#0C0C14"/>
</svg>

<svg xmlns="http://www.w3.org/2000/svg" width="24" height="24" viewBox="0 0 24 24">
  <g class="ic-text-quote">
    <path fill-rule="evenodd" d="M4.5 3.75a.75.75 0 0 0-1.5 0v16.5a.75.75 0 0 0 1.5 0V3.75ZM6.75 9.5c0-1.6 1.429-2.75 3-2.75s3 1.15 3 2.75v1c0 .146-.012.29-.035.428-.196 2.075-1.21 4.016-2.853 5.476l-.739.657a.75.75 0 0 1-.996-1.122l.739-.656a7.296 7.296 0 0 0 1.66-2.127c-.25.061-.511.094-.776.094-1.571 0-3-1.15-3-2.75v-1Zm4.5.686c0 .172-.007.344-.02.515-.113.542-.667 1.049-1.48 1.049-.914 0-1.5-.64-1.5-1.25v-1c0-.61.586-1.25 1.5-1.25s1.5.64 1.5 1.25v.686Zm3-.686c0-1.6 1.429-2.75 3-2.75s3 1.15 3 2.75v1c0 .146-.012.29-.035.428-.196 2.075-1.21 4.016-2.853 5.476l-.739.657a.75.75 0 0 1-.996-1.122l.739-.656a7.297 7.297 0 0 0 1.66-2.127c-.25.061-.511.094-.776.094-1.571 0-3-1.15-3-2.75v-1Zm4.5.686c0 .172-.007.344-.02.515-.113.542-.666 1.049-1.48 1.049-.914 0-1.5-.64-1.5-1.25v-1c0-.61.586-1.25 1.5-1.25s1.5.64 1.5 1.25v.686Z" class="Icon"/>
  </g>
</svg>
